src/components/MapCanvas/icons/lead.svg

<?xml version="1.0" standalone="no"?><!DOCTYPE svg PUBLIC "-//W3C//DTD SVG 1.1//EN" "http://www.w3.org/Graphics/SVG/1.1/DTD/svg11.dtd"><svg width="100%" height="100%" viewBox="0 0 20 40" version="1.1" xmlns="http://www.w3.org/2000/svg" xmlns:xlink="http://www.w3.org/1999/xlink" xml:space="preserve" style="fill-rule:evenodd;clip-rule:evenodd;stroke-linejoin:round;stroke-miterlimit:1.41421;"><g id="Layer 1"><path d="M0.5,0.5l19,0l0,27.294l-13.483,0l-5.517,10.226l0,-37.52Z" style="fill:#f15a24;fill-rule:nonzero;"/><path d="M0,0l0,40l6.315,-11.706l13.685,0l0,-28.294l-20,0ZM1,1l18,0l0,26.294l-12.685,0l-0.596,0l-0.284,0.525l-4.435,8.221l0,-35.04Z" style="fill:#000;fill-rule:nonzero;"/><path d="M10.016,21.004l0,-10.202l-2.888,2.508l0,-3.325l2.888,-2.507l3.115,0l0,13.526l-3.115,0Z" style="fill:#000;fill-rule:nonzero;"/></g></svg>

<svg viewBox="0 0 20 40" height="40px" width="20px" xmlns="http://www.w3.org/2000/svg" fill-rule="evenodd" clip-rule="evenodd" stroke-linejoin="round" stroke-miterlimit="1.414"><g fill-rule="nonzero"><path d="M.5.5h19v27.294H6.017L.5 38.02V.5z" fill="#f15a24"/><path d="M0 0v40l6.315-11.706H20V0H0zm1 1h18v26.294H5.719l-.284.525L1 36.04V1z"/><path d="M10.016 21.004V10.802L7.128 13.31V9.985l2.888-2.507h3.115v13.526h-3.115z"/></g></svg>
